X:101
T:Stricken, Smitten, and Afflicted
%%stretchlast false
M:6/4
L:1/4
K:G clef=C1
"^vi"[EGBe] "^V/vi¹"[^DFBf] "^vi"[EBg]2 "^IV"[CEcg]2 | "^ii"[A,Eca] "^vi"[E,EBg] [B,EBf]2 "^V/vi"[B,^DBf]2 | "^vi"[EBg] "^III"[B,^DBf] "^IV"[CEGe]2 "^vii°¹"[A,Acf]2 | "^vi²"[B,GBe] "^V/vi"[B,FB^d] "^vi"[E,GBe]4 | [EGBe] "^V/vi¹"[^DFBf] "^vi"[EBg]2 "^IV"[CEcg]2 | "^ii"[A,Eca] "^vi"[E,EBg] [B,EBf]2 "^V/vi"[B,^DBf]2 | "^vi"[EBg] "^III"[B,^DBf] "^IV"[CEGe]2 "^vii°¹"[A,Acf]2 | "^vi²"[B,GBe] "^V/vi"[B,FB^d] "^vi"[E,GBe]4 | [EBg] "^V"[DFda] "^I"[Gdb]2 "^vi"[EGeb]2 | "^IV"[CGec'] "^I"[G,Gdb] [DGda]2 "^V"[DFda]2 | "^I"[Gdb] "^V"[DFda] "^vi"[EBg]2 "^IV"[CEcg]2 | "^ii"[A,Eca] "^vi"[E,EBg] "^V/vi"[B,^DBf]4 | "^vi¹"[G,EBe] "^V/vi"[B,FB^d] "^vi"[EGBe]2 [EBg]2 | "^III"[B,^DBf] "^IV"[CEGe] "^vi"[B,EBf]2 "^V/vi"[B,^DBf]2 | "^vi"[EBg] "^iii¹"[DFBf] "^IV"[CGce]2 "^vii°¹"[A,Acf]2 | "^vi²"[B,GBe] "^V/vi"[B,FB^d] "^vi"[E,GBe]4 |]
